!!!SOCIAL_FUNCTION:	arapaho war song
!!!PDT:	1936
!!!OTL: No_20_Closing_Song_of_War_Dance.krn
!!!REG: Oklahoma and Montana
!!!LANG: Tone
!!!LING_GROUP: Algonquin
**kern	**kern
*staff2	*staff1
=1-	=1-
*clefF4	*clefF4
*k[f#]	*k[f#]
*M2/4	*M2/4
8GG/L	12e\L
.	12e\
8GG/J	.
.	12e\J
8GG/L	16e\LK
.	8.e\J
8GG/J	.
=2	=2
16GG/LK	16e\LK
8.GG/J	8.e\J
16GG/LK	16B\LL
8.GG/J	16B\JJ
.	16r
.	16f#\
=3	=3
2r	16e\LK
.	8.e\J
.	16e\LK
.	8.e\J
=4	=4
2r	16e\LK
.	8.e\J
.	16B\LL
.	16B\JJ
.	16r
.	16f#\
=5	=5
2r	16e\LK
.	8.B\J
.	8B\L
.	8B\J
=6	=6
2r	8B\L
.	8A\J
.	8A\
.	16r
.	16B\
=7	=7
*M3/4	*M3/4
2.r	16A\LK
.	8.A\J
.	8A\L
.	8A\J
.	8A\
.	16r
.	16B\
=8	=8
*M2/4	*M2/4
2r	16B\LK
.	8.A\J
.	8A\L
.	8A\J
=9	=9
2r	8A\L
.	8G\J
.	8E\
.	16r
.	16A\
=10	=10
*M3/4	*M3/4
2.r	16G\LK
.	8.G\J
.	8G\L
.	8G\J
.	8G\
.	16r
.	16B\
=11	=11
*M2/4	*M2/4
2r	16A\LK
.	8.A\J
.	8A\L
.	8A\J
=12	=12
2r	8A\L
.	8G\J
.	8.E\L
.	16E\Jk
=13	=13
2r	8E\L
.	8E\J
.	8E\L
.	8E\J
=14	=14
2r	8E\L
.	8E\J
.	8.r
.	16e\
=15	=15
2r	16e\LK
.	8.B\J
.	8B\L
.	8B\J
=16	=16
2r	8B\L
.	8A\J
.	8A\
.	16r
.	16B\
=17	=17
*M3/4	*M3/4
2.r	16A\LK
.	8.A\J
.	8A\L
.	8A\J
.	8A\
.	16r
.	16B\
=18	=18
*M2/4	*M2/4
2r	16B\LK
.	8.A\J
.	8A\L
.	8A\J
=19	=19
2r	8A\L
.	8G\J
.	16E\LL
.	16E\JJ
.	16r
.	16A\
=20	=20
*M3/4	*M3/4
2.r	16G\LK
.	8.G\J
.	8G\L
.	8G\J
.	8G\
.	16r
.	16B\
=21	=21
*M2/4	*M2/4
2r	16A\LK
.	8.A\J
.	8A\L
.	8A\J
=22	=22
2r	8A\L
.	8G\J
.	8.E\L
.	16F#\Jk
=23	=23
2r	2E\
=24	=24
2r	4E\
.	4r
==	==
*-	*-
